!!!COM: Music21
!!!OTL: waltz_My-Hearts-In-New-South-Wales
!!!OMV: waltz_My-Hearts-In-New-South-Wales
**kern
*clefG2
*k[]
*M3/4
=1
8aL
8bJ
=||
4cc
8ccL
8ddJ
8eeL
8aJ
=
4.dd
8ee
4gg
=
4aa
4.ee
8dd
=
8ccL
8bJ
4a
4a
=
4.ff
8ee
4dd
=
4ee
4.a
8a
=
4.b
8a
4b
=
2e
4d
!!linebreak:original
=
4.c#X
8e
4a
=
4.d
8f#X
4b
=
4.b
8cc#X
4dd
=
4ee
4a
4a
=
4.c#X
8e
4a
=
4d
4b
4g#X
=
[2.a
=
2a]
8aL
8bJ
=||
4cc
8ccL
8ddJ
8eeL
8aJ
!!linebreak:original
=
4.dd
8ee
4gg
=
4aa
4.ee
8dd
=
8ccL
8bJ
4a
4a
=
4.ff
8ee
4dd
=
4ee
4.a
8a
=
4.b
8a
4b
=
2e
4d
=
4.c#X
8e
4a
=
4.d
8f#X
4b
!!linebreak:original
=
4.b
8cc#X
4dd
=
4ee
4a
4a
=
4.ggn
8ff#X
4dd
=
4ee
4a
8eeL
8ddJ
=
4b
4a
4g#X
=
2a
8cc#XL
8ddJ
=||
4.ee
8aa
4ff#X
=
4.a
8ff#X
4dd
=
4.f#X
8dd
4f#
!!linebreak:original
=
4.e
8cc#X
4e
=
4ee
4cc#X
4ff#X
=
4dd
4b
4ee
=
4cc#X
4b
4a
=
2e
8cc#XL
8ddJ
=||
4.ee
8aa
4ff#X
=
4.a
8ff#X
4dd
=
4.f#X
8dd
4f#
=
4.e
8cc#X
4e
!!linebreak:original
=
4.d
8b
4a
=
4.g#X
8ff#X
4g#
=
[2.a
=
2a]
8cc#XL
8ddJ
=
4.ee
8aa
4ff#X
=
4.a
8ff#X
4dd
=
4.f#X
8dd
4f#
=
4.e
8cc#X
4e
=
4ee
4cc#X
4ff#X
!!linebreak:original
=
4dd
4b
4ee
=
4cc#X
4b
4a
=
4e
4e-X
4d
=
4.c#X
8e
4a
=
4.d
8f#X
4b
=
4.b
8cc#X
4dd
=
4ee
4a
4a
=
4.c#X
8e
4a
=
4d
4b
4g#X
=
[2.a
!!linebreak:original
=
2.a]
=||
*-
